Dominus_Dark_Funeral/22/devices/media-optical.svg

<svg xmlns="http://www.w3.org/2000/svg" width="24" height="24"><path d="M12 5.86a6.08 6.08 0 0 0-4.34 1.8A6.19 6.19 0 0 0 5.86 12a6.08 6.08 0 0 0 1.8 4.34 6.19 6.19 0 0 0 4.34 1.8 6.08 6.08 0 0 0 4.34-1.8 6.19 6.19 0 0 0 1.8-4.34 6.08 6.08 0 0 0-1.8-4.34A6.19 6.19 0 0 0 12 5.86zm0 3A3.15 3.15 0 0 1 15.14 12 3.15 3.15 0 0 1 12 15.14 3.15 3.15 0 0 1 8.86 12 3.15 3.15 0 0 1 12 8.86z" fill="#e6e6e6" fill-opacity=".3"/><path d="M12 1C5.97 1 1 5.97 1 12s4.97 11 11 11 11-4.97 11-11S18.03 1 12 1zm0 5.86a5.1 5.1 0 0 1 3.63 1.5 5.18 5.18 0 0 1 1.1 5.64A5.18 5.18 0 0 1 12 17.14a5.1 5.1 0 0 1-3.63-1.5A5.18 5.18 0 0 1 7.27 10 5.18 5.18 0 0 1 12 6.86z" fill="#e6e6e6"/></svg>

<?xml version="1.0" encoding="UTF-8" standalone="no"?>
<svg
   xmlns:dc="http://purl.org/dc/elements/1.1/"
   xmlns:cc="http://creativecommons.org/ns#"
   xmlns:rdf="http://www.w3.org/1999/02/22-rdf-syntax-ns#"
   xmlns:svg="http://www.w3.org/2000/svg"
   xmlns="http://www.w3.org/2000/svg"
   xmlns:sodipodi="http://sodipodi.sourceforge.net/DTD/sodipodi-0.dtd"
   xmlns:inkscape="http://www.inkscape.org/namespaces/inkscape"
   width="24"
   height="24"
   version="1.1"
   id="svg6"
   sodipodi:docname="media-optical.svg"
   inkscape:version="0.92.4 (5da689c313, 2019-01-14)">
  <metadata
     id="metadata12">
    <rdf:RDF>
      <cc:Work
         rdf:about="">
        <dc:format>image/svg+xml</dc:format>
        <dc:type
           rdf:resource="http://purl.org/dc/dcmitype/StillImage" />
        <dc:title></dc:title>
      </cc:Work>
    </rdf:RDF>
  </metadata>
  <defs
     id="defs10" />
  <sodipodi:namedview
     pagecolor="#ffffff"
     bordercolor="#666666"
     borderopacity="1"
     objecttolerance="10"
     gridtolerance="10"
     guidetolerance="10"
     inkscape:pageopacity="0"
     inkscape:pageshadow="2"
     inkscape:window-width="1138"
     inkscape:window-height="480"
     id="namedview8"
     showgrid="false"
     inkscape:zoom="9.8333333"
     inkscape:cx="1.0677966"
     inkscape:cy="12"
     inkscape:window-x="0"
     inkscape:window-y="25"
     inkscape:window-maximized="0"
     inkscape:current-layer="svg6" />
  <path
     d="M 12,5.86 A 6.08,6.08 0 0 0 7.66,7.66 6.19,6.19 0 0 0 5.86,12 6.08,6.08 0 0 0 7.66,16.34 6.19,6.19 0 0 0 12,18.14 6.08,6.08 0 0 0 16.34,16.34 6.19,6.19 0 0 0 18.14,12 6.08,6.08 0 0 0 16.34,7.66 6.19,6.19 0 0 0 12,5.86 Z m 0,3 A 3.15,3.15 0 0 1 15.14,12 3.15,3.15 0 0 1 12,15.14 3.15,3.15 0 0 1 8.86,12 3.15,3.15 0 0 1 12,8.86 Z"
     id="path2"
     inkscape:connector-curvature="0"
     style="fill:#e6e6e6;fill-opacity:0.3" />
  <path
     d="M 12,1 C 5.97,1 1,5.97 1,12 1,18.03 5.97,23 12,23 18.03,23 23,18.03 23,12 23,5.97 18.03,1 12,1 Z m 0,5.86 A 5.1,5.1 0 0 1 15.63,8.36 5.18,5.18 0 0 1 16.73,14 5.18,5.18 0 0 1 12,17.14 5.1,5.1 0 0 1 8.37,15.64 5.18,5.18 0 0 1 7.27,10 5.18,5.18 0 0 1 12,6.86 Z"
     id="path4"
     inkscape:connector-curvature="0"
     style="fill:#e6e6e6" />
</svg>
